X:422
T:Stoney Lonesome
C:Bill Monroe - Kenny Blackwell solo
N:From "The Grass is Greener" Transcribed and Transcribed by Mike Stangeland
R:bluegrass
L:1/8
Q:1/4=232
M:4/4
K:A
z8 |: "A"[ae][ae] z[ae] [a2e2] [ae][eA] | =ga ge dc A2 | [ae][ae] z[ae] [ae]e =c'a | 
"G"=ga ed =cB A2 | "A"[ae][ae] z[ae] [ae]e ef | =gf eg fd ef | "G"=gf gf "D"e2 d2 | 
"E"cA cd "A"ec A2 :| "A"Ac dc A2 Ac | dc dc A2 DF | "G"=GA BG AB GA | B[=gd] z[gd] z[gd] [g2d2] | 
"A"cd ec A2 af | ed ef ed ef | "G"=g2 (3fgf "D"e2 d2 | "E"cd cd "A"ec A2 | "A"Ac dc Ac dc | 
dc BA BA =GD | "G"F=G BA GB de | f=g fe fe de | "A"dc AB =cA =GE | [e2A2] [eA][eA] [e2A2] ef | 
"G"=g2 (3fgf "D"e2 d2 | "E"cB cd "A"ec A2 | z8 | z8 | z8 | z8 | z8 | z8 | z8 | 
z8 | 


